X: 20503
Q: "Very slow."
M: C
L: 1/8
K: G
d3e B2A2 | {GA}G6 |]
d2 |\
d3(e/f/) {f}g3(f/e/) | d3e B3e |\
d3e (dB)(AG) | (B3c/B/ A2)zG |\
(d<B)(g<e) d<BA2 | {GA}G6 |]


